src/assets/icons/file-check.svg

<svg width="14" height="14" viewBox="0 0 14 14" fill="none" xmlns="http://www.w3.org/2000/svg">
<g id="file-check">
<path id="Vector" fill-rule="evenodd" clip-rule="evenodd" d="M1.60001 2.2C1.60001 0.988629 2.58864 0 3.80001 0H7.40001C7.55914 0 7.71175 0.0632141 7.82427 0.175736L12.2243 4.57574C12.3368 4.68826 12.4 4.84087 12.4 5V11.8C12.4 13.0114 11.4114 14 10.2 14H3.80001C2.58864 14 1.60001 13.0114 1.60001 11.8V2.2ZM3.80001 1.2C3.25138 1.2 2.80001 1.65137 2.80001 2.2V11.8C2.80001 12.3486 3.25138 12.8 3.80001 12.8H10.2C10.7486 12.8 11.2 12.3486 11.2 11.8V5.6H7.40001C7.06864 5.6 6.80001 5.33137 6.80001 5V1.2H3.80001ZM8.00001 2.04853L10.3515 4.4H8.00001V2.04853ZM9.62427 7.82426C9.85858 7.58995 9.85858 7.21005 9.62427 6.97574C9.38996 6.74142 9.01006 6.74142 8.77574 6.97574L6.00001 9.75147L5.22427 8.97574C4.98996 8.74142 4.61006 8.74142 4.37574 8.97574C4.14143 9.21005 4.14143 9.58995 4.37574 9.82426L5.57574 11.0243C5.81006 11.2586 6.18996 11.2586 6.42427 11.0243L9.62427 7.82426Z" fill="black"/>
</g>
</svg>

<svg xmlns="http://www.w3.org/2000/svg" fill="none" viewBox="0 0 14 14"><path fill="#000" fill-rule="evenodd" d="M1.6 2.2C1.6.989 2.589 0 3.8 0h3.6a.6.6 0 0 1 .424.176l4.4 4.4A.6.6 0 0 1 12.4 5v6.8c0 1.211-.989 2.2-2.2 2.2H3.8c-1.211 0-2.2-.989-2.2-2.2zm2.2-1c-.549 0-1 .451-1 1v9.6c0 .549.451 1 1 1h6.4c.549 0 1-.451 1-1V5.6H7.4a.6.6 0 0 1-.6-.6V1.2zm4.2.849L10.351 4.4H8zm1.624 5.775a.6.6 0 0 0-.848-.848L6 9.75l-.776-.775a.6.6 0 1 0-.848.848l1.2 1.2a.6.6 0 0 0 .848 0z" clip-rule="evenodd"/></svg>
